actions/32/help-about.svg

<?xml version="1.0" encoding="UTF-8" standalone="no"?>
<svg
   xmlns:dc="http://purl.org/dc/elements/1.1/"
   xmlns:cc="http://creativecommons.org/ns#"
   xmlns:rdf="http://www.w3.org/1999/02/22-rdf-syntax-ns#"
   xmlns:svg="http://www.w3.org/2000/svg"
   xmlns="http://www.w3.org/2000/svg"
   xmlns:xlink="http://www.w3.org/1999/xlink"
   version="1.1"
   width="32"
   height="32"
   id="svg3883">
  <defs
     id="defs3885">
    <linearGradient
       x1="11.566265"
       y1="22.292103"
       x2="15.214532"
       y2="33.95525"
       id="linearGradient3855"
       xlink:href="#linearGradient8265-821-176-38-919-66-249"
       gradientUnits="userSpaceOnUse"
       gradientTransform="matrix(0.64444615,0,0,0.64444615,2.163877,14.811363)" />
    <linearGradient
       id="linearGradient8265-821-176-38-919-66-249">
      <stop
         id="stop2687"
         style="stop-color:#ffffff;stop-opacity:0.27450982"
         offset="0" />
      <stop
         id="stop2689"
         style="stop-color:#ffffff;stop-opacity:0"
         offset="1" />
    </linearGradient>
    <linearGradient
       x1="29.646643"
       y1="2"
       x2="29.646643"
       y2="43.443626"
       id="linearGradient3841"
       xlink:href="#linearGradient3881"
       gradientUnits="userSpaceOnUse"
       gradientTransform="matrix(0.64444615,0,0,0.64444615,0.53333069,0.53325595)" />
    <linearGradient
       id="linearGradient3881">
      <stop
         id="stop3883"
         style="stop-color:#ffffff;stop-opacity:1"
         offset="0" />
      <stop
         id="stop3885"
         style="stop-color:#ffffff;stop-opacity:0.23529412"
         offset="0.33380178" />
      <stop
         id="stop3887"
         style="stop-color:#ffffff;stop-opacity:0.15686275"
         offset="0.67927718" />
      <stop
         id="stop3889"
         style="stop-color:#ffffff;stop-opacity:0.39215687"
         offset="1" />
    </linearGradient>
    <radialGradient
       cx="13.138569"
       cy="25.625349"
       r="13.931416"
       fx="13.138569"
       fy="25.625349"
       id="radialGradient3627"
       xlink:href="#linearGradient3846"
       gradientUnits="userSpaceOnUse"
       gradientTransform="matrix(0,1.7104018,-2.0382599,0,63.162289,-16.657885)" />
    <linearGradient
       id="linearGradient3846">
      <stop
         id="stop3848"
         style="stop-color:#fff3cb;stop-opacity:1"
         offset="0" />
      <stop
         id="stop3850"
         style="stop-color:#fdde76;stop-opacity:1"
         offset="0.26238" />
      <stop
         id="stop3852"
         style="stop-color:#f9c440;stop-opacity:1"
         offset="0.66093999" />
      <stop
         id="stop3854"
         style="stop-color:#e48b20;stop-opacity:1"
         offset="1" />
    </linearGradient>
    <linearGradient
       x1="21.483376"
       y1="36.255058"
       x2="21.483376"
       y2="9.5799999"
       id="linearGradient3629"
       xlink:href="#linearGradient3856"
       gradientUnits="userSpaceOnUse"
       gradientTransform="matrix(1.0639038,0,0,1.0677384,-6.8562072,-9.162926)" />
    <linearGradient
       id="linearGradient3856">
      <stop
         id="stop3858"
         style="stop-color:#b67926;stop-opacity:1"
         offset="0" />
      <stop
         id="stop3860"
         style="stop-color:#eab41a;stop-opacity:1"
         offset="1" />
    </linearGradient>
    <linearGradient
       id="linearGradient8838">
      <stop
         id="stop8840"
         style="stop-color:#000000;stop-opacity:1"
         offset="0" />
      <stop
         id="stop8842"
         style="stop-color:#000000;stop-opacity:0"
         offset="1" />
    </linearGradient>
    <radialGradient
       cx="62.625"
       cy="4.625"
       r="10.625"
       fx="62.625"
       fy="4.625"
       id="radialGradient3881"
       xlink:href="#linearGradient8838"
       gradientUnits="userSpaceOnUse"
       gradientTransform="matrix(1.4117648,0,0,0.56470513,-72.411731,23.388235)" />
  </defs>
  <metadata
     id="metadata3888">
    <rdf:RDF>
      <cc:Work
         rdf:about="">
        <dc:format>image/svg+xml</dc:format>
        <dc:type
           rdf:resource="http://purl.org/dc/dcmitype/StillImage" />
        <dc:title />
      </cc:Work>
    </rdf:RDF>
  </metadata>
  <g
     id="layer1">
    <path
       d="m 31.000038,25.999999 c 0,3.313709 -6.715729,6.000001 -15,6.000001 C 7.7157681,32 1.0000383,29.313708 1.0000383,25.999999 1.0000383,22.686292 7.7157681,20 16.000038,20 c 8.284271,0 15,2.686292 15,5.999999 l 0,0 z"
       id="path8836"
       style="opacity:0.3;fill:url(#radialGradient3881);fill-opacity:1;fill-rule:evenodd;stroke:none;stroke-width:0.99999988;marker:none;visibility:visible;display:inline;overflow:visible" />
    <path
       d="m 16.000037,1.4974327 c 0.978784,0 4.13436,7.910881 4.926214,8.488271 0.791851,0.5773873 9.263652,1.1447403 9.566113,2.0789733 0.302461,0.934234 -6.219087,6.39078 -6.521548,7.325013 -0.30246,0.934233 1.777824,9.195756 0.985972,9.773145 -0.791853,0.577387 -7.977967,-3.961163 -8.956752,-3.961163 -0.978783,0 -8.1648972,4.53855 -8.9567501,3.961163 C 6.251434,28.585446 8.331718,20.323922 8.0292575,19.38969 7.7267971,18.455457 1.2052494,12.99891 1.5077102,12.064675 1.810171,11.130444 10.281971,10.563091 11.073825,9.9857037 c 0.791852,-0.57739 3.947429,-8.488271 4.926212,-8.488271 z"
       id="path1307"
       style="fill:url(#radialGradient3627);fill-opacity:1;fill-rule:nonzero;stroke:url(#linearGradient3629);stroke-width:0.9922713;stroke-linecap:butt;stroke-linejoin:round;stroke-miterlimit:4;stroke-opacity:1;stroke-dasharray:none;stroke-dashoffset:0;marker:none;visibility:visible;display:inline;overflow:visible" />
    <path
       d="m 16.008597,2.928904 c -1.412439,2.674148 -2.696301,5.432298 -4.168399,8.065176 -2.9741416,0.571623 -5.9951175,1.01272 -8.9878512,1.528574 2.068776,2.127369 4.1154729,4.286762 6.1689248,6.422463 -0.027883,1.120075 -0.3297428,2.255067 -0.4115096,3.383432 -0.2151051,1.763357 -0.4094732,3.879237 -0.6636652,5.637582 2.6703322,-1.317263 5.3192342,-2.753549 8.0028352,-4.033221 2.889137,1.162973 5.624472,2.788167 8.207491,4.091509 -0.404423,-2.843686 -0.92157,-6.105122 -1.297355,-8.947299 0.677523,-0.936651 1.653369,-1.671505 2.415879,-2.553298 1.294961,-1.335342 2.582496,-2.677954 3.8899,-4.001168 C 26.202411,11.826315 23.141566,11.581333 20.170798,10.994151 19.464002,9.967625 19.007366,8.751401 18.398572,7.654132 17.60478,6.077613 16.818147,4.497431 16.008597,2.928904 z"
       id="path3849"
       style="opacity:0.8;fill:none;stroke:url(#linearGradient3841);stroke-width:1;stroke-linecap:butt;stroke-linejoin:round;stroke-miterlimit:4;stroke-opacity:1;stroke-dasharray:none;stroke-dashoffset:0;marker:none;visibility:visible;display:inline;overflow:visible" />
    <path
       d="m 15.71875,18.53125 c -0.254446,0.374093 -2.346828,3.472786 -4.375,8.25 A 0.20608164,0.20608164 0 0 1 11.3125,26.8125 0.20608164,0.20608164 0 0 1 11.21875,26.875 0.20608164,0.20608164 0 0 1 11.1875,26.90625 c -3.0053006,0.490049 -7.0029859,1.038743 -9.3125,1.6875 1.5783275,2.00052 3.5604578,3.737007 5.34375,5.5625 l 20.25,-3.59375 c 0.582787,-0.584147 1.71282,-1.713072 2,-2 -2.871985,-0.776885 -6.239483,-1.134102 -9.25,-1.625 A 0.20608164,0.20608164 0 0 1 20.1875,26.90625 0.20608164,0.20608164 0 0 1 20.09375,26.84375 0.20608164,0.20608164 0 0 1 20.0625,26.8125 c -1.525162,-3.540869 -4.056294,-7.800982 -4.34375,-8.28125 z"
       transform="translate(0.28984682,-16.289846)"
       id="path3853"
       style="opacity:0.8;fill:url(#linearGradient3855);fill-opacity:1;fill-rule:nonzero;stroke:none;stroke-width:1;marker:none;visibility:visible;display:inline;overflow:visible;enable-background:accumulate" />
  </g>
</svg>

<svg xmlns="http://www.w3.org/2000/svg" xmlns:xlink="http://www.w3.org/1999/xlink" viewBox="0 0 32 32"><defs><linearGradient x1="11.566" y1="22.292" x2="15.215" y2="33.955" id="j" xlink:href="#a" gradientUnits="userSpaceOnUse" gradientTransform="translate(2.164 14.81) scale(.64445)"/><linearGradient id="a"><stop offset="0" stop-color="#fff" stop-opacity=".275"/><stop offset="1" stop-color="#fff" stop-opacity="0"/></linearGradient><linearGradient x1="29.647" y1="2" x2="29.647" y2="43.444" id="i" xlink:href="#b" gradientUnits="userSpaceOnUse" gradientTransform="translate(.533 .533) scale(.64445)"/><linearGradient id="b"><stop offset="0" stop-color="#fff"/><stop offset=".334" stop-color="#fff" stop-opacity=".235"/><stop offset=".679" stop-color="#fff" stop-opacity=".157"/><stop offset="1" stop-color="#fff" stop-opacity=".392"/></linearGradient><radialGradient cx="13.139" cy="25.625" r="13.931" fx="13.139" fy="25.625" id="g" xlink:href="#c" gradientUnits="userSpaceOnUse" gradientTransform="matrix(0 1.7104 -2.03826 0 63.162 -16.658)"/><linearGradient id="c"><stop offset="0" stop-color="#fff3cb"/><stop offset=".262" stop-color="#fdde76"/><stop offset=".661" stop-color="#f9c440"/><stop offset="1" stop-color="#e48b20"/></linearGradient><linearGradient x1="21.483" y1="36.255" x2="21.483" y2="9.58" id="h" xlink:href="#d" gradientUnits="userSpaceOnUse" gradientTransform="matrix(1.0639 0 0 1.06774 -6.856 -9.163)"/><linearGradient id="d"><stop offset="0" stop-color="#b67926"/><stop offset="1" stop-color="#eab41a"/></linearGradient><linearGradient id="e"><stop offset="0"/><stop offset="1" stop-opacity="0"/></linearGradient><radialGradient cx="62.625" cy="4.625" r="10.625" fx="62.625" fy="4.625" id="f" xlink:href="#e" gradientUnits="userSpaceOnUse" gradientTransform="matrix(1.41176 0 0 .5647 -72.412 23.388)"/></defs><path d="M31 26c0 3.314-6.716 6-15 6-8.284 0-15-2.686-15-6s6.716-6 15-6c8.284 0 15 2.686 15 6z" opacity=".3" fill="url(#f)" fill-rule="evenodd" overflow="visible"/><path d="M16 1.497c.98 0 4.134 7.91 4.926 8.49.792.576 9.264 1.143 9.566 2.078.303.934-6.22 6.39-6.52 7.325-.304.934 1.777 9.195.985 9.773-.792.577-7.978-3.96-8.957-3.96-.98 0-8.165 4.537-8.957 3.96-.792-.578 1.29-8.84.986-9.773-.306-.935-6.828-6.39-6.525-7.325.302-.935 8.774-1.502 9.566-2.08.793-.577 3.948-8.488 4.927-8.488z" fill="url(#g)" stroke="url(#h)" stroke-width=".992" stroke-linejoin="round" overflow="visible"/><path d="M16.01 2.93c-1.414 2.673-2.698 5.43-4.17 8.064-2.974.572-5.995 1.013-8.988 1.53 2.07 2.126 4.116 4.285 6.17 6.42-.03 1.12-.33 2.256-.412 3.385-.215 1.76-.41 3.875-.664 5.633 2.67-1.317 5.32-2.753 8.003-4.033 2.885 1.164 5.62 2.79 8.203 4.09-.404-2.84-.92-6.103-1.297-8.945.677-.937 1.652-1.67 2.415-2.553 1.296-1.336 2.583-2.678 3.89-4-2.962-.698-6.022-.943-8.993-1.53-.707-1.026-1.164-2.243-1.77-3.34-.796-1.576-1.583-3.157-2.39-4.725z" opacity=".8" fill="none" stroke="url(#i)" stroke-linejoin="round" overflow="visible"/><path d="M15.72 18.53c-.256.375-2.348 3.474-4.376 8.25a.206.206 0 0 1-.03.032.206.206 0 0 1-.095.063.206.206 0 0 1-.036.03c-3.005.49-7.002 1.04-9.312 1.69 1.578 2 3.56 3.736 5.344 5.56l20.25-3.593c.582-.584 1.712-1.713 2-2-2.873-.776-6.24-1.134-9.25-1.625a.206.206 0 0 1-.032-.03.206.206 0 0 1-.094-.063.206.206 0 0 1-.03-.032c-1.526-3.54-4.057-7.8-4.344-8.28z" transform="translate(.29 -16.29)" opacity=".8" fill="url(#j)" overflow="visible"/></svg>
